favicon.svg

<svg width="200" height="200" viewBox="0 0 200 200" fill="none" xmlns="http://www.w3.org/2000/svg"> <g clip-path="url(#clip0_105_666)"> <path fill-rule="evenodd" clip-rule="evenodd" d="M100 22C100 9.84974 90.1503 0 78 0H22C9.84974 0 0 9.84972 0 22V78.7194C0 90.8697 9.84974 100.719 22 100.719H78C90.1503 100.719 100 110.569 100 122.719V178C100 190.15 109.85 200 122 200H178C190.15 200 200 190.15 200 178V121.28C200 109.13 190.15 99.2805 178 99.2805H122C109.85 99.2805 100 89.4308 100 77.2805V22Z" fill="url(#paint0_linear_105_666)"/> </g> <defs> <linearGradient id="paint0_linear_105_666" x1="14" y1="26" x2="179" y2="179.5" gradientUnits="userSpaceOnUse"> <stop stop-color="#E9B8FF"/> <stop offset="1" stop-color="#F9ECFF"/> </linearGradient> <clipPath id="clip0_105_666"> <rect width="200" height="200" fill="white"/> </clipPath> </defs> </svg>

<svg xmlns="http://www.w3.org/2000/svg" width="200" height="200" fill="none" viewBox="0 0 200 200"><g clip-path="url(#a)"><path fill="url(#b)" fill-rule="evenodd" d="M100 22c0-12.15-9.85-22-22-22H22C9.85 0 0 9.85 0 22v56.72c0 12.15 9.85 21.999 22 21.999h56c12.15 0 22 9.85 22 22V178c0 12.15 9.85 22 22 22h56c12.15 0 22-9.85 22-22v-56.72c0-12.15-9.85-22-22-22h-56c-12.15 0-22-9.85-22-22z" clip-rule="evenodd"/></g><defs><linearGradient id="b" x1="14" x2="179" y1="26" y2="179.5" gradientUnits="userSpaceOnUse"><stop stop-color="#E9B8FF"/><stop offset="1" stop-color="#F9ECFF"/></linearGradient><clipPath id="a"><path fill="#fff" d="M0 0h200v200H0z"/></clipPath></defs></svg>
